svgs/slack.svg

<svg width="192" height="192" viewBox="0 0 192 192" fill="none" xmlns="http://www.w3.org/2000/svg">
<rect x="106" y="22" width="22" height="64" rx="11" stroke="black" stroke-width="12"/>
<rect x="64" y="106" width="22" height="64" rx="11" stroke="black" stroke-width="12"/>
<rect x="170" y="106" width="22" height="64" rx="11" transform="rotate(90 170 106)" stroke="black" stroke-width="12"/>
<rect x="86" y="64" width="22" height="64" rx="11" transform="rotate(90 86 64)" stroke="black" stroke-width="12"/>
<path d="M75 44C68.9249 44 64 39.0751 64 33C64 26.9249 68.9249 22 75 22C81.0751 22 86 26.9249 86 33L86 44L75 44Z" stroke="black" stroke-width="12" stroke-linejoin="round"/>
<path d="M117 148C123.075 148 128 152.925 128 159C128 165.075 123.075 170 117 170C110.925 170 106 165.075 106 159L106 148L117 148Z" stroke="black" stroke-width="12" stroke-linejoin="round"/>
<path d="M148 75C148 68.9249 152.925 64 159 64C165.075 64 170 68.9249 170 75C170 81.0751 165.075 86 159 86L148 86L148 75Z" stroke="black" stroke-width="12" stroke-linejoin="round"/>
<path d="M44 117C44 123.075 39.0751 128 33 128C26.9249 128 22 123.075 22 117C22 110.925 26.9249 106 33 106L44 106L44 117Z" stroke="black" stroke-width="12" stroke-linejoin="round"/>
</svg>

<svg xmlns="http://www.w3.org/2000/svg" width="192" height="192" fill="none" stroke="#000" stroke-width="12" xmlns:v="https://vecta.io/nano"><rect x="106" y="22" width="22" height="64" rx="11"/><rect x="64" y="106" width="22" height="64" rx="11"/><rect x="170" y="106" width="22" height="64" rx="11" transform="rotate(90 170 106)"/><rect x="86" y="64" width="22" height="64" rx="11" transform="rotate(90 86 64)"/><path d="M75 44c-6.075 0-11-4.925-11-11s4.925-11 11-11 11 4.925 11 11v11H75zm42 104c6.075 0 11 4.925 11 11s-4.925 11-11 11-11-4.925-11-11v-11h11zm31-73c0-6.075 4.925-11 11-11s11 4.925 11 11-4.925 11-11 11h-11V75zM44 117c0 6.075-4.925 11-11 11s-11-4.925-11-11 4.925-11 11-11h11v11z" stroke-linejoin="round"/></svg>
